X:238
T:Miss McCloud
Z: id:dc-reel-219
M:C
L:1/8
K:G Major
G2BG dGBG|B3A BcBA|G2BG dGBG|A3G AcBA|!
G2BG dGBG|BcBA B2d2|efed Bdef|gedB AcBA:|!
G2g2 edeg|B3A BcBA|G2g2 edeg|a3g ac'ba|!
g2fg edeg|BcBA B2d2|efed Bdef|gedB AcBA:|!

